X: 16
T: Song Sung after Raising the Sacred Pole (c)
C: Teton Sioux band 1911-1914
N: Derived from sioux016.krn
O: South Dakota, U.S.A.
N: Teton Sioux Music by Frances Densmore, 1918
Z: transcribed to **kern format by Craig Sapp
L: 1/8
M: 3/4
Q: 1/4=58
K: E clef=bass
%%linebreak <none>
G G G [I:setbarnb 1]| 
G2>>G2 F F | 
E4C/ C3/ ||  
[M:2/4]C2C2- | 
C F F F | 
F4- ||  
[M:3/4]F2>>E2 E E | 
E4C/ C3/ ||  
[M:2/4]C2C2- | 
C2(3C C C ||  
[M:3/4]C2>>C2 C C | 
C4G,/ G,3/ ||  
[M:2/4]G,2G,2- | 
G, C C C ||  
[M:3/4]C2>>C2 C C | 
C4C/ C3/ | 
C2C4 ||  
[M:2/4]F F F F | 
F> EE2 ||  
[M:3/4]C2>>C2 C C | 
C4G,/ G,3/ ||  
[M:2/4]G,2G,2- | 
G, C C C ||  
[M:3/4]C2>>C2 C C | 
C4C/ C3/ | 
C3C3 :|]  



